svg/color/tusd.svg

<svg height="32" viewBox="0 0 32 32" width="32" xmlns="http://www.w3.org/2000/svg"><g fill="none"><circle cx="16" cy="16" fill="#2b2e7f" r="16"/><g fill="#fff" transform="translate(5 4)"><path d="m12.0571128 15.0279241v-5.85932558h.7708113c2.5442571 0 3.1713383-2.37386722 3.1713383-2.37386722h-6.68345629c-3.17133825 0-3.70916754 2.37386722-3.70916754 2.37386722h3.94214963v8.81738668s2.5083246-.7534246 2.5083246-2.9580611z"/><path d="m19.3954689 19.5936776c2.2475237-2.3356165 3.1099052-5.579979 2.300843-8.6829294-.413804-1.60421501-1.2761855-3.08440468-2.4805058-4.2794521-.1077977-.10663857-.2155954-.21443625-.3419389-.32107481l-.1077977-.10663857c-.0718651-.07186512-.162276-.14257113-.2341412-.19589041l-.1437302-.10663857c-.0718651-.05331928-.1437302-.10663857-.2155954-.15995785l-.1263435-.08925184c-.1077977-.07186512-.1796628-.12518441-.2515279-.17850369l-.1622761-.10663857c-.0718651-.05331928-.1437302-.08925184-.2155953-.1251844l-.1622761-.10663857c-.0718651-.03593256-.1437303-.08925184-.2155954-.1251844l-.1622761-.08925185c-.0718651-.03593256-.1437302-.07186512-.2341412-.10663857l-.0544784-.01738672c.1982087.15995785.3952582.33846154.574921.51696523 3.451844 3.42286617 3.451844 9.00400419 0 12.42687039-4.3860906 4.3501581-11.50537408 4.3501581-15.89262382 0-.16227608-.1599579-.30600632-.3210748-.46712328-.4810327l-.12634352-.1425711c-.09041096-.1066386-.17966281-.2144362-.27007376-.3384615.55753424 1.1057955 1.29473129 2.1037934 2.17565858 2.9951528 4.58429927 4.5460484 12.0269758 4.5460484 16.611275 0 .0938883-.0544784.1483667-.1077977.201686-.1796628z"/><path d="m5.40031612 18.3858799c-.19820864-.161117-.39641728-.3396207-.57608008-.5169653-3.45532139-3.4263435-3.45532139-9.01211797 0-12.43846149 4.39072708-4.35479452 11.51580606-4.35479452 15.90653316 0 .3060064.30368809.5934668.62476291.8635406.96322445-.5575342-1.08840886-1.2958904-2.1061117-2.1768177-2.9800843-4.5889357-4.55068494-12.03856692-4.55068494-16.62634352 0-.0544784.05331928-.10779768.1251844-.17966281.17850368-3.04151738 3.17713383-3.45532139 7.92370916-1.02581664 11.52855636.95395152 1.3909378 2.28461538 2.5512118 3.81464699 3.2652266z"/></g></g></svg>

<?xml version="1.0" encoding="UTF-8"?>
<svg width="32px" height="32px" viewBox="0 0 32 32" version="1.1" xmlns="http://www.w3.org/2000/svg" xmlns:xlink="http://www.w3.org/1999/xlink">
    <!-- Generator: Sketch 50 (54983) - http://www.bohemiancoding.com/sketch -->
    <title>color/tusd</title>
    <desc>Created with Sketch.</desc>
    <defs></defs>
    <g id="color/tusd" stroke="none" stroke-width="1" fill="none" fill-rule="evenodd">
        <g id="Group" fill="#2B2E7F" fill-rule="nonzero">
            <circle id="Oval" cx="16" cy="16" r="16"></circle>
        </g>
        <g id="TrueUSD-(TUSD)" transform="translate(5.000000, 4.000000)" fill="#FFFFFF" fill-rule="nonzero">
            <path d="M12.0571128,15.0279241 L12.0571128,9.16859852 L12.8279241,9.16859852 C15.3721812,9.16859852 15.9992624,6.7947313 15.9992624,6.7947313 L9.31580611,6.7947313 C6.14446786,6.7947313 5.60663857,9.16859852 5.60663857,9.16859852 L9.5487882,9.16859852 L9.5487882,17.9859852 C9.5487882,17.9859852 12.0571128,17.2325606 12.0571128,15.0279241 Z" id="Shape"></path>
            <path d="M19.3954689,19.5936776 C21.6429926,17.2580611 22.5053741,14.0136986 21.6963119,10.9107482 C21.2825079,9.30653319 20.4201264,7.82634352 19.2158061,6.6312961 C19.1080084,6.52465753 19.0002107,6.41685985 18.8738672,6.31022129 L18.7660695,6.20358272 C18.6942044,6.1317176 18.6037935,6.06101159 18.5319283,6.00769231 L18.3881981,5.90105374 C18.316333,5.84773446 18.2444679,5.79441517 18.1726027,5.74109589 L18.0462592,5.65184405 C17.9384615,5.57997893 17.8665964,5.52665964 17.7947313,5.47334036 L17.6324552,5.36670179 C17.5605901,5.31338251 17.488725,5.27744995 17.4168599,5.24151739 L17.2545838,5.13487882 C17.1827187,5.09894626 17.1108535,5.04562698 17.0389884,5.00969442 L16.8767123,4.92044257 C16.8048472,4.88451001 16.7329821,4.84857745 16.6425711,4.813804 L16.5880927,4.79641728 C16.7863014,4.95637513 16.9833509,5.13487882 17.1630137,5.31338251 C20.6148577,8.73624868 20.6148577,14.3173867 17.1630137,17.7402529 C12.7769231,22.090411 5.65763962,22.090411 1.27038988,17.7402529 C1.1081138,17.580295 0.964383562,17.4191781 0.803266596,17.2592202 L0.676923077,17.1166491 C0.586512118,17.0100105 0.497260274,16.9022129 0.406849315,16.7781876 C0.964383562,17.8839831 1.70158061,18.881981 2.5825079,19.7733404 C7.16680717,24.3193888 14.6094837,24.3193888 19.1937829,19.7733404 C19.2876712,19.718862 19.3421496,19.6655427 19.3954689,19.5936776 Z" id="Shape"></path>
            <path d="M5.40031612,18.3858799 C5.20210748,18.2247629 5.00389884,18.0462592 4.82423604,17.8689146 C1.36891465,14.4425711 1.36891465,8.85679663 4.82423604,5.43045311 C9.21496312,1.07565859 16.3400421,1.07565859 20.7307692,5.43045311 C21.0367756,5.7341412 21.324236,6.05521602 21.5943098,6.39367756 C21.0367756,5.3052687 20.2984194,4.28756586 19.4174921,3.41359326 C14.8285564,-1.13709168 7.37892518,-1.13709168 2.79114858,3.41359326 C2.73667018,3.46691254 2.6833509,3.53877766 2.61148577,3.59209694 C-0.430031612,6.76923077 -0.843835616,11.5158061 1.58566913,15.1206533 C2.53962065,16.5115911 3.87028451,17.6718651 5.40031612,18.3858799 Z" id="Shape"></path>
        </g>
    </g>
</svg>
